X:1
T:John Brosnan's
R:reel
M:4/4
L:1/8
K:Bm
BA|:FB~B2 FBde|~f2ef dcBA|FA~A2 FAEA|FA~A2 eAcA|
|FB~B2 FBde|~f2ef dcBA|~f2ef dfcf|1 FBBA BcBA:|2 FBBA B2ce|]
|:fB~B2 FBde|~f2bf afea|fB~B2 FBdf|~e2ce Aece|
|fB~B2 FBde|~f2bf afea|~f2ef dfcf|1 FBBA B2ce:|2 FBBA BcBA|]